X:950
T:Reel 950
M:4/4
K:Dmaj
L:1/8
F>D (3DCD A,>D (3DCD |FDDF GBAG|F>D (3DCD A,>D (3DCD |ECCD =cAGE|FD (3DCD A,D (3DCD |FDDF GBAG|FEFG AdcA| (3GFE =cA G2FG|Ad (3dcd AGFA|dcdB AFDF|G=cGc ECGB| (3cBc AB AB=cB|A=c (3cBc dcAG|Adcd Bdcd|edcB ABcd|edcd AGFE|
